modules/themify-icons/icons/face-sad.svg

<?xml version="1.0" encoding="utf-8"?>
<!-- Generated by IcoMoon.io -->
<!DOCTYPE svg PUBLIC "-//W3C//DTD SVG 1.1//EN" "http://www.w3.org/Graphics/SVG/1.1/DTD/svg11.dtd">
<svg version="1.1" xmlns="http://www.w3.org/2000/svg" xmlns:xlink="http://www.w3.org/1999/xlink" width="17" height="17" viewBox="0 0 17 17">
<g>
</g>
	<path d="M8.5 0c-4.687 0-8.5 3.813-8.5 8.5s3.813 8.5 8.5 8.5 8.5-3.813 8.5-8.5-3.813-8.5-8.5-8.5zM8.5 16c-4.136 0-7.5-3.364-7.5-7.5s3.364-7.5 7.5-7.5 7.5 3.364 7.5 7.5-3.364 7.5-7.5 7.5zM13 13c0 0.276-0.224 0.5-0.5 0.5s-0.5-0.224-0.5-0.5c0-1.93-1.57-3.5-3.5-3.5s-3.5 1.57-3.5 3.5c0 0.276-0.224 0.5-0.5 0.5s-0.5-0.224-0.5-0.5c0-2.481 2.019-4.5 4.5-4.5s4.5 2.019 4.5 4.5zM4.5 5.5c0-0.552 0.448-1 1-1s1 0.448 1 1-0.448 1-1 1-1-0.448-1-1zM10.5 5.5c0-0.552 0.448-1 1-1s1 0.448 1 1-0.448 1-1 1-1-0.448-1-1z" fill="#000000" />
</svg>

<svg xmlns="http://www.w3.org/2000/svg" width="17" height="17" viewBox="0 0 17 17"><path d="M8.5 0C3.813 0 0 3.813 0 8.5S3.813 17 8.5 17 17 13.187 17 8.5 13.187 0 8.5 0zm0 16C4.364 16 1 12.636 1 8.5S4.364 1 8.5 1 16 4.364 16 8.5 12.636 16 8.5 16zm4.5-3a.5.5 0 0 1-1 0c0-1.93-1.57-3.5-3.5-3.5S5 11.07 5 13a.5.5 0 0 1-1 0c0-2.481 2.019-4.5 4.5-4.5S13 10.519 13 13zM4.5 5.5a1 1 0 1 1 2 0 1 1 0 0 1-2 0zm6 0a1 1 0 1 1 2 0 1 1 0 0 1-2 0z"/></svg>
